images/icons/house.svg

<svg width="52" height="52" viewBox="0 0 52 52" fill="none" xmlns="http://www.w3.org/2000/svg">
<path d="M51.6051 24.2683L42.0107 16.075C42.0219 16.0189 42.0331 15.9629 42.0443 15.8956V5.18038C42.0331 4.5415 41.5287 4.02592 40.8899 4.0035H35.5322C34.9158 4.0035 34.4114 4.55271 34.4114 5.18038V9.61892L26.7336 3.0732C26.3189 2.71453 25.7025 2.71453 25.2765 3.0732L0.405061 24.2571C-0.0769005 24.6494 -0.132943 25.3555 0.259352 25.8375C0.651647 26.3195 1.35778 26.3755 1.83974 25.9832C1.85095 25.972 1.85095 25.972 1.86216 25.9608L26.0051 5.40455L34.6468 12.7685L39.8139 17.1622L50.1592 25.972C50.63 26.3755 51.3361 26.3195 51.7396 25.8487C52.1319 25.378 52.0759 24.6718 51.6051 24.2683ZM39.7914 14.1807L36.6531 11.5356V6.25639H39.7914V14.1807Z" fill="black"/>
<path d="M46.6622 26.5324L43.5126 23.8424L26.7336 9.5068C26.3189 9.14813 25.7024 9.14813 25.2765 9.5068L8.49752 23.8424L5.34795 26.5324C4.8772 26.9359 4.82116 27.642 5.22466 28.1128C5.61695 28.5835 6.31188 28.6396 6.77142 28.2473L6.78263 28.2361L8.18368 27.0256V48.0413C8.19489 48.669 8.71048 49.1846 9.33815 49.1958H42.6608C43.2884 49.1846 43.804 48.6802 43.8152 48.0413V27.0256L45.2163 28.2361C45.418 28.4042 45.6646 28.5051 45.9336 28.5051C46.2587 28.5051 46.5725 28.3594 46.7855 28.1128C47.2002 27.6308 47.1329 26.9247 46.6622 26.5324ZM30.4884 46.9429H21.5217V34.8378H30.4884V46.9429ZM32.7301 46.9429V33.7506C32.7301 33.1341 32.2706 32.5961 31.6541 32.5961H20.356C19.7396 32.5961 19.28 33.1341 19.28 33.7506V46.9429H10.4254V25.1089L26.0051 11.8381L41.5848 25.1089V46.9429H32.7301Z" fill="black"/>
</svg>

<svg width="52" height="52" fill="none" xmlns="http://www.w3.org/2000/svg"><path d="m51.605 24.268-9.594-8.193c.01-.056.022-.112.033-.18V5.18a1.195 1.195 0 0 0-1.154-1.176h-5.358c-.616 0-1.12.549-1.12 1.176V9.62l-7.678-6.546a1.121 1.121 0 0 0-1.458 0L.406 24.257a1.12 1.12 0 0 0-.147 1.58 1.12 1.12 0 0 0 1.58.146l.023-.022L26.005 5.405l8.642 7.363 5.167 4.394 10.345 8.81a1.12 1.12 0 0 0 1.58-.123 1.131 1.131 0 0 0-.134-1.58zM39.791 14.181l-3.138-2.645v-5.28h3.138v7.925z" fill="#000"/><path d="m46.662 26.532-3.15-2.69L26.735 9.507a1.121 1.121 0 0 0-1.458 0L8.498 23.842l-3.15 2.69a1.12 1.12 0 0 0-.123 1.58 1.09 1.09 0 0 0 1.546.135l.012-.01 1.4-1.211V48.04a1.183 1.183 0 0 0 1.155 1.155h33.323a1.175 1.175 0 0 0 1.154-1.155V27.026l1.401 1.21c.202.168.449.27.718.27.325 0 .639-.147.852-.393a1.108 1.108 0 0 0-.124-1.58zm-16.174 20.41h-8.966V34.839h8.966v12.105zm2.242 0V33.752c0-.617-.46-1.155-1.076-1.155H20.356c-.616 0-1.076.538-1.076 1.155v13.192h-8.855V25.109l15.58-13.27 15.58 13.27v21.834H32.73z" fill="#000"/></svg>
